icons/midnadark/devices/16/multimedia-player-ipod-mini-blue.svg

<?xml version="1.0" encoding="UTF-8" standalone="no"?>
<!-- Created with Inkscape (http://www.inkscape.org/) -->

<svg
   xmlns:osb="http://www.openswatchbook.org/uri/2009/osb"
   xmlns:dc="http://purl.org/dc/elements/1.1/"
   xmlns:cc="http://creativecommons.org/ns#"
   xmlns:rdf="http://www.w3.org/1999/02/22-rdf-syntax-ns#"
   xmlns:svg="http://www.w3.org/2000/svg"
   xmlns="http://www.w3.org/2000/svg"
   xmlns:xlink="http://www.w3.org/1999/xlink"
   xmlns:sodipodi="http://sodipodi.sourceforge.net/DTD/sodipodi-0.dtd"
   xmlns:inkscape="http://www.inkscape.org/namespaces/inkscape"
   width="16"
   height="16"
   id="svg3869"
   version="1.1"
   inkscape:version="0.91 r13725"
   sodipodi:docname="multimedia-player-ipod-mini-blue.svg">
  <defs
     id="defs3871">
    <linearGradient
       id="linearGradient4207"
       osb:paint="gradient">
      <stop
         style="stop-color:#3498db;stop-opacity:1;"
         offset="0"
         id="stop3371" />
      <stop
         style="stop-color:#3498db;stop-opacity:0;"
         offset="1"
         id="stop3373" />
    </linearGradient>
    <linearGradient
       id="linearGradient4737">
      <stop
         style="stop-color:#9e9e9e;stop-opacity:1"
         offset="0"
         id="stop4739" />
      <stop
         style="stop-color:#969696;stop-opacity:1;"
         offset="1"
         id="stop4741" />
    </linearGradient>
    <linearGradient
       id="linearGradient3923">
      <stop
         id="stop3925"
         offset="0"
         style="stop-color:#c8c8c8;stop-opacity:1;" />
      <stop
         id="stop3927"
         offset="1"
         style="stop-color:#969696;stop-opacity:1;" />
    </linearGradient>
    <linearGradient
       id="linearGradient3911">
      <stop
         id="stop3913"
         offset="0"
         style="stop-color:#828282;stop-opacity:1;" />
      <stop
         id="stop3915"
         offset="1"
         style="stop-color:#c8c8c8;stop-opacity:1;" />
    </linearGradient>
    <linearGradient
       id="linearGradient3781">
      <stop
         style="stop-color:#dcdcdc;stop-opacity:1;"
         offset="0"
         id="stop3783" />
      <stop
         style="stop-color:#f0f0f0;stop-opacity:1;"
         offset="1"
         id="stop3785" />
    </linearGradient>
    <linearGradient
       id="linearGradient3780">
      <stop
         id="stop3782"
         offset="0"
         style="stop-color:#b2b2b2;stop-opacity:1" />
      <stop
         id="stop3784"
         offset="1"
         style="stop-color:#afafaf;stop-opacity:1" />
    </linearGradient>
    <linearGradient
       id="linearGradient3687">
      <stop
         style="stop-color:#2c2c2c;stop-opacity:1"
         offset="0"
         id="stop3689" />
      <stop
         id="stop3691"
         offset="0.11054216"
         style="stop-color:#414141;stop-opacity:1" />
      <stop
         id="stop3693"
         offset="0.29001436"
         style="stop-color:#474747;stop-opacity:1" />
      <stop
         id="stop3695"
         offset="0.5118711"
         style="stop-color:#4e4e4e;stop-opacity:1" />
      <stop
         id="stop3699"
         offset="0.75173318"
         style="stop-color:#3c3c3c;stop-opacity:1;" />
      <stop
         style="stop-color:#323232;stop-opacity:1"
         offset="0.89659214"
         id="stop3701" />
      <stop
         style="stop-color:#272727;stop-opacity:1"
         offset="1"
         id="stop3703" />
    </linearGradient>
    <inkscape:perspective
       id="perspective4146"
       inkscape:persp3d-origin="12 : 8 : 1"
       inkscape:vp_z="24 : 12 : 1"
       inkscape:vp_y="0 : 1000 : 0"
       inkscape:vp_x="0 : 12 : 1"
       sodipodi:type="inkscape:persp3d" />
    <inkscape:perspective
       id="perspective4090"
       inkscape:persp3d-origin="12 : 8 : 1"
       inkscape:vp_z="24 : 12 : 1"
       inkscape:vp_y="0 : 1000 : 0"
       inkscape:vp_x="0 : 12 : 1"
       sodipodi:type="inkscape:persp3d" />
    <clipPath
       id="clipPath4160"
       clipPathUnits="userSpaceOnUse">
      <rect
         y="1023.3622"
         x="7"
         height="1"
         width="1"
         id="rect4162"
         style="opacity:1;fill:#f2f2f2;fill-opacity:1;stroke:none;stroke-opacity:1" />
    </clipPath>
    <clipPath
       id="clipPath4160-4"
       clipPathUnits="userSpaceOnUse">
      <rect
         y="1023.3622"
         x="7"
         height="1"
         width="1"
         id="rect4162-9"
         style="opacity:1;fill:#f2f2f2;fill-opacity:1;stroke:none;stroke-opacity:1" />
    </clipPath>
    <clipPath
       id="clipPath4160-3"
       clipPathUnits="userSpaceOnUse">
      <rect
         y="1023.3622"
         x="7"
         height="1"
         width="1"
         id="rect4162-0"
         style="opacity:1;fill:#f2f2f2;fill-opacity:1;stroke:none;stroke-opacity:1" />
    </clipPath>
    <linearGradient
       inkscape:collect="always"
       id="linearGradient4012">
      <stop
         style="stop-color:#1d99f3;stop-opacity:1"
         offset="0"
         id="stop4014" />
      <stop
         id="stop4016"
         offset="0.41666669"
         style="stop-color:#48acf5;stop-opacity:0.76119405" />
      <stop
         id="stop4018"
         offset="0.66666329"
         style="stop-color:#73c0f7;stop-opacity:0" />
      <stop
         style="stop-color:#cae7fc;stop-opacity:0"
         offset="1"
         id="stop4020" />
    </linearGradient>
    <inkscape:perspective
       sodipodi:type="inkscape:persp3d"
       inkscape:vp_x="0 : 12 : 1"
       inkscape:vp_y="0 : 1000 : 0"
       inkscape:vp_z="24 : 12 : 1"
       inkscape:persp3d-origin="12 : 8 : 1"
       id="perspective4090-4" />
    <linearGradient
       gradientTransform="matrix(0.75,0,0,0.75,1.7499999,269.34054)"
       gradientUnits="userSpaceOnUse"
       y2="1033.3622"
       x2="19"
       y1="1049.3622"
       x1="3"
       id="linearGradient4164"
       xlink:href="#linearGradient4012"
       inkscape:collect="always" />
    <linearGradient
       y2="1028.0288"
       x2="24.333334"
       y1="1049.3622"
       x1="3"
       gradientTransform="matrix(0.75,0,0,0.75,2.7499999,262.34058)"
       gradientUnits="userSpaceOnUse"
       id="linearGradient3983"
       xlink:href="#linearGradient4012"
       inkscape:collect="always" />
    <linearGradient
       inkscape:collect="always"
       xlink:href="#linearGradient4012"
       id="linearGradient4007"
       gradientUnits="userSpaceOnUse"
       gradientTransform="matrix(0.75,0,0,0.75,3.7499999,-767.02162)"
       x1="3"
       y1="1049.3622"
       x2="24.333334"
       y2="1028.0288" />
    <linearGradient
       gradientTransform="matrix(0.75,0,0,0.75,3.7499999,-769.02166)"
       gradientUnits="userSpaceOnUse"
       y2="1033.3622"
       x2="19"
       y1="1049.3622"
       x1="3"
       id="linearGradient4164-76"
       xlink:href="#linearGradient4012"
       inkscape:collect="always" />
    <clipPath
       clipPathUnits="userSpaceOnUse"
       id="clipPath4160-8">
      <rect
         style="opacity:1;fill:#f2f2f2;fill-opacity:1;stroke:none;stroke-opacity:1"
         id="rect4162-2"
         width="1"
         height="1"
         x="7"
         y="1023.3622" />
    </clipPath>
    <clipPath
       clipPathUnits="userSpaceOnUse"
       id="clipPath4160-4-7">
      <rect
         style="opacity:1;fill:#f2f2f2;fill-opacity:1;stroke:none;stroke-opacity:1"
         id="rect4162-9-3"
         width="1"
         height="1"
         x="7"
         y="1023.3622" />
    </clipPath>
    <clipPath
       clipPathUnits="userSpaceOnUse"
       id="clipPath4160-3-3">
      <rect
         style="opacity:1;fill:#f2f2f2;fill-opacity:1;stroke:none;stroke-opacity:1"
         id="rect4162-0-0"
         width="1"
         height="1"
         x="7"
         y="1023.3622" />
    </clipPath>
    <inkscape:perspective
       id="perspective4090-0"
       inkscape:persp3d-origin="12 : 8 : 1"
       inkscape:vp_z="24 : 12 : 1"
       inkscape:vp_y="0 : 1000 : 0"
       inkscape:vp_x="0 : 12 : 1"
       sodipodi:type="inkscape:persp3d" />
    <linearGradient
       id="linearGradient4066">
      <stop
         id="stop4068"
         style="stop-color:#dbc9ee;stop-opacity:1"
         offset="0" />
      <stop
         id="stop4070"
         style="stop-color:#faf7fd;stop-opacity:1"
         offset="1" />
    </linearGradient>
    <linearGradient
       id="linearGradient3843-5">
      <stop
         offset="0"
         style="stop-color:#5a2c8b;stop-opacity:1"
         id="stop3845-0" />
      <stop
         offset="1"
         style="stop-color:#9d59cf;stop-opacity:1"
         id="stop3847-4" />
    </linearGradient>
    <clipPath
       id="clipPath4160-40"
       clipPathUnits="userSpaceOnUse">
      <rect
         y="1023.3622"
         x="7"
         height="1"
         width="1"
         id="rect4162-02"
         style="opacity:1;fill:#f2f2f2;fill-opacity:1;stroke:none;stroke-opacity:1" />
    </clipPath>
    <linearGradient
       id="linearGradient4290-48">
      <stop
         id="stop4292-0"
         offset="0"
         style="stop-color:#a5a5a5;stop-opacity:1;" />
      <stop
         id="stop4294-0"
         offset="1"
         style="stop-color:#f5f2f5;stop-opacity:1;" />
    </linearGradient>
    <inkscape:perspective
       id="perspective4146-9"
       inkscape:persp3d-origin="12 : 8 : 1"
       inkscape:vp_z="24 : 12 : 1"
       inkscape:vp_y="0 : 1000 : 0"
       inkscape:vp_x="0 : 12 : 1"
       sodipodi:type="inkscape:persp3d" />
    <inkscape:perspective
       id="perspective4146-7"
       inkscape:persp3d-origin="12 : 8 : 1"
       inkscape:vp_z="24 : 12 : 1"
       inkscape:vp_y="0 : 1000 : 0"
       inkscape:vp_x="0 : 12 : 1"
       sodipodi:type="inkscape:persp3d" />
  </defs>
  <sodipodi:namedview
     id="base"
     pagecolor="#ffffff"
     bordercolor="#666666"
     borderopacity="1.0"
     inkscape:pageopacity="0.0"
     inkscape:pageshadow="2"
     inkscape:zoom="11.313708"
     inkscape:cx="-15.493946"
     inkscape:cy="9.6747909"
     inkscape:document-units="px"
     inkscape:current-layer="layer1"
     showgrid="true"
     fit-margin-top="0"
     fit-margin-left="0"
     fit-margin-right="0"
     fit-margin-bottom="0"
     inkscape:window-width="1366"
     inkscape:window-height="633"
     inkscape:window-x="0"
     inkscape:window-y="33"
     inkscape:window-maximized="1"
     inkscape:showpageshadow="false"
     inkscape:snap-bbox="true"
     inkscape:object-nodes="true">
    <inkscape:grid
       type="xygrid"
       id="grid4132" />
    <sodipodi:guide
       position="4,18"
       orientation="18,0"
       id="guide4138" />
    <sodipodi:guide
       position="5,3"
       orientation="0,18"
       id="guide4140" />
    <sodipodi:guide
       position="20,2.0000174"
       orientation="-18,0"
       id="guide4142" />
    <sodipodi:guide
       position="2,21"
       orientation="0,-18"
       id="guide4144" />
    <sodipodi:guide
       position="3,19.000017"
       orientation="16,0"
       id="guide4146" />
    <sodipodi:guide
       position="2,4"
       orientation="0,16"
       id="guide4148" />
    <sodipodi:guide
       position="21,20"
       orientation="-16,0"
       id="guide4150" />
    <sodipodi:guide
       position="2,20"
       orientation="0,-16"
       id="guide4152" />
  </sodipodi:namedview>
  <metadata
     id="metadata3874">
    <rdf:RDF>
      <cc:Work
         rdf:about="">
        <dc:format>image/svg+xml</dc:format>
        <dc:type
           rdf:resource="http://purl.org/dc/dcmitype/StillImage" />
        <dc:title />
      </cc:Work>
    </rdf:RDF>
  </metadata>
  <g
     inkscape:label="Capa 1"
     inkscape:groupmode="layer"
     id="layer1"
     transform="translate(-326,-540.3622)">
    <g
       transform="translate(-29,1)"
       id="layer1-4"
       inkscape:label="Capa 1">
      <g
         inkscape:label="Capa 1"
         id="layer1-9-7"
         transform="translate(326,-496)">
        <g
           id="layer1-0"
           inkscape:label="Capa 1" />
      </g>
    </g>
    <g
       transform="matrix(0.75000002,0,0,0.75000002,325.75,-232.65947)"
       id="layer1-6"
       inkscape:label="Capa 1"
       style="fill:#ffffff;fill-opacity:1">
      <g
         inkscape:label="Capa 1"
         id="layer1-35"
         transform="matrix(1.3333333,0,0,1.3333333,0.33333353,-351.12069)"
         style="fill:#ffffff;fill-opacity:1">
        <g
           transform="matrix(0.75,0,0,0.75,-244.75,635.34055)"
           id="layer1-1-9"
           inkscape:label="Capa 1"
           style="fill:#ffffff;fill-opacity:1">
          <g
             inkscape:label="Capa 1"
             id="layer1-4-9"
             transform="matrix(1.375,0,0,1.375,322.875,-887.51083)"
             style="fill:#ffffff;fill-opacity:1">
            <g
               inkscape:label="Capa 1"
               id="layer1-3"
               transform="matrix(0.6517009,0,0,0.6517009,3.0368427,363.39251)"
               style="fill:#ffffff;fill-opacity:1">
              <g
                 id="g4151"
                 transform="matrix(1.1159609,0,0,1.1159609,-1.1724939,-120.69549)"
                 style="fill:#ffffff;fill-opacity:1">
                <path
                   style="fill:#ffffff;fill-opacity:1;stroke:none;stroke-opacity:1"
                   d="M 8 2 C 4.676 2 2 4.676 2 8 C 2 11.324 4.676 14 8 14 C 11.324 14 14 11.324 14 8 C 14 4.676 11.324 2 8 2 z M 9.34375 4.1757812 C 9.3919433 4.6153071 9.2148776 5.0554838 8.953125 5.3730469 C 8.6910941 5.6898922 8.2607515 5.9371386 7.8398438 5.9042969 C 7.7829053 5.4735601 7.9955569 5.0232614 8.2382812 4.7421875 C 8.5087936 4.4253422 8.9667143 4.1911328 9.34375 4.1757812 z M 9.3359375 5.9882812 C 9.5804929 5.9984912 10.26648 6.0877449 10.707031 6.7324219 C 10.672007 6.7550537 9.8870215 7.210338 9.8964844 8.1601562 C 9.9063574 9.2946617 10.892944 9.6725488 10.904297 9.6777344 C 10.895508 9.703999 10.746494 10.215567 10.384766 10.744141 C 10.071934 11.201157 9.7473822 11.656523 9.2363281 11.666016 C 8.7337555 11.675449 8.5722063 11.367188 7.9980469 11.367188 C 7.4238728 11.367187 7.2444477 11.654873 6.7695312 11.673828 C 6.2763629 11.692109 5.9009371 11.180234 5.5859375 10.724609 C 4.9412898 9.7938048 4.4499227 8.0949693 5.1113281 6.9472656 C 5.4391158 6.3771345 6.0255183 6.0153223 6.6621094 6.0058594 C 7.1464887 5.9970557 7.6047269 6.3320312 7.9003906 6.3320312 C 8.1968014 6.3320312 8.7518903 5.9291456 9.3359375 5.9882812 z "
                   transform="matrix(1.3333333,0,0,1.3333333,0.333333,1030.6955)"
                   id="rect3356-7" />
              </g>
              <g
                 id="layer1-2"
                 inkscape:label="Capa 1"
                 transform="matrix(1.4226132,0,0,1.2679986,-23.052987,-280.9677)"
                 style="fill:#ffffff;fill-opacity:1" />
            </g>
          </g>
        </g>
        <g
           style="fill:#ffffff;fill-opacity:1"
           transform="matrix(0.01464842,0,0,0.01464842,4.100251,1040.5372)"
           id="g3" />
      </g>
    </g>
  </g>
</svg>

<svg xmlns="http://www.w3.org/2000/svg" viewBox="0 0 16 16"><defs><clipPath><path fill="#f2f2f2" d="m7 1023.36h1v1h-1z"/></clipPath><clipPath><path fill="#f2f2f2" d="m7 1023.36h1v1h-1z"/></clipPath><clipPath><path fill="#f2f2f2" d="m7 1023.36h1v1h-1z"/></clipPath><clipPath><path fill="#f2f2f2" d="m7 1023.36h1v1h-1z"/></clipPath><clipPath><path fill="#f2f2f2" d="m7 1023.36h1v1h-1z"/></clipPath><clipPath><path fill="#f2f2f2" d="m7 1023.36h1v1h-1z"/></clipPath><clipPath><path fill="#f2f2f2" d="m7 1023.36h1v1h-1z"/></clipPath></defs><path d="m8 2c-3.324 0-6 2.676-6 6 0 3.324 2.676 6 6 6 3.324 0 6-2.676 6-6 0-3.324-2.676-6-6-6m1.344 2.176c.048.44-.129.88-.391 1.197-.262.317-.692.564-1.113.531-.057-.431.156-.881.398-1.162.271-.317.728-.551 1.105-.566m-.008 1.813c.245.001.931.099 1.371.744-.035.023-.82.478-.811 1.428.001 1.135.996 1.512 1.01 1.518-.009.026-.158.538-.52 1.066-.313.457-.637.912-1.148.922-.503.009-.664-.299-1.238-.299-.574 0-.754.288-1.229.307-.493.018-.869-.494-1.184-.949-.645-.931-1.136-2.63-.475-3.777.328-.57.914-.932 1.551-.941.484-.009.943.326 1.238.326.296 0 .851-.403 1.436-.344" transform="translate(0 .008)" fill="#fff"/></svg>
